X: 2473
T: Ballycarroll, The
R: jig
M: 6/8
K: Fmajor
=B|cAG FGF|BGF EGC|BGF EGC|FAd cA=B|
cAG FAC|BGF E2C|B,CD CcB|AFE F2F|
cAG FEF|BGF EGC|BGF EGC|FAd c (3AB=B|
cAG FCF|BGF E2C|B,CD CcB|AFE F2F||
fcA FF^F|GBd GBd|fcA FEF|EGC EGC|
fcA FF^F|GBd GBd|B,CD CcB|1 AFE F2F:|2 AFE F3||

